X: 1616
T: Spellan's Fiddle
M:C|
L:1/8
R:Hornpipe
B:O'Neill's 1616
N:"Collected by J.O'Neill."
Z:Transcribed by Michael D. Long, 10/10/98
K:A
c>d|e>ag>b a>fe>c|A>GA>B c>AE>D|C>EA>c d>cB>A|G>Be>g f>cd>B|
A>ag>b a>fe>c|A>GA>B c>AE>D|C>EA>c (3(Bgf) (3(edB)|A2 c2 A2:|\
|:G>A|B>cB>A G>Be>f|g>ag>e B>eg>b|
a>gf>a g>fe>g|f>b^d>b c>bB>b|B>cB>A G>Be>f|g>ag>e B>eg>b|\
a>f^d>B (3(dcB) (3(AGF)|(3(EGB) (3(egb) c'2:|


